docs/1.0.0/_static/images/search-icon.svg

<svg height="16" viewBox="0 0 16 16" width="16" xmlns="http://www.w3.org/2000/svg" xmlns:xlink="http://www.w3.org/1999/xlink"><mask id="a" fill="#fff"><path d="m0 0h16v16h-16z" fill="#fff" fill-rule="evenodd"/></mask><path d="m2.95913767 9.58220606c-1.82597332-1.825984-1.82597332-4.79706709 0-6.62305109.91298666-.91299199 2.11224642-1.36953477 3.31150618-1.36953477s2.39861307.45654278 3.31159973 1.36953477c1.82597332 1.825984 1.82597332 4.79706709 0 6.62305109-.88454645.88455164-2.06060499 1.37168654-3.31159973 1.37168654-1.25090118 0-2.42695972-.4871349-3.31150618-1.37168654zm13.04086233 5.25351634-4.7504495-4.7504773c1.8855668-2.45794024 1.7059444-6.00204065-.5427962-8.25070093-2.44604464-2.44605889-6.42617626-2.44605889-8.87222085 0-2.4460446 2.44615246-2.4460446 6.42621379 0 8.87227273 1.1849461 1.184953 2.76038368 1.8374911 4.4361104 1.8374911 1.39806052 0 2.7253012-.4556073 3.81519715-1.2941304l4.7497946 4.7498224z" fill="#ee4c2c" fill-rule="evenodd" mask="url(#a)"/></svg>

<svg width="16px" height="16px" viewBox="0 0 16 16" version="1.1" xmlns="http://www.w3.org/2000/svg" xmlns:xlink="http://www.w3.org/1999/xlink">
    <!-- Generator: Sketch 51.2 (57519) - http://www.bohemiancoding.com/sketch -->
    <desc>Created with Sketch.</desc>
    <defs>
        <polygon id="path-1" points="0 0 16 0 16 16 0 16"></polygon>
    </defs>
    <g id="Page-1" stroke="none" stroke-width="1" fill="none" fill-rule="evenodd">
        <g id="Artboard" transform="translate(-63.000000, -93.000000)">
            <g id="ic" transform="translate(63.000000, 93.000000)">
                <mask id="mask-2" fill="white">
                    <use xlink:href="#path-1"></use>
                </mask>
                <g id="Clip-2"></g>
                <path d="M2.95913767,9.58220606 C1.13316435,7.75622206 1.13316435,4.78513897 2.95913767,2.95915497 C3.87212433,2.04616298 5.07138409,1.5896202 6.27064385,1.5896202 C7.46990361,1.5896202 8.66925692,2.04616298 9.58224358,2.95915497 C11.4082169,4.78513897 11.4082169,7.75622206 9.58224358,9.58220606 C8.69769713,10.4667577 7.52163859,10.9538926 6.27064385,10.9538926 C5.01974267,10.9538926 3.84368413,10.4667577 2.95913767,9.58220606 Z M16,14.8357224 L11.2495505,10.0852451 C13.1351173,7.62730486 12.9554949,4.08320445 10.7067543,1.83454417 C8.26070966,-0.611514724 4.28057804,-0.611514724 1.83453345,1.83454417 C-0.611511149,4.28069663 -0.611511149,8.26075796 1.83453345,10.7068169 C3.01947955,11.8917699 4.59491713,12.544308 6.27064385,12.544308 C7.66870437,12.544308 8.99594505,12.0887007 10.085841,11.2501776 L14.8356356,16 L16,14.8357224 Z" id="Fill-1" fill="#EE4C2C" mask="url(#mask-2)"></path>
            </g>
        </g>
    </g>
</svg>
